src/components/icons/eye.svg

<svg width="18" height="11" viewBox="0 0 18 11" fill="none" xmlns="http://www.w3.org/2000/svg">
<path d="M0.139576 6.16266C-0.0388374 5.93341 -0.0388374 5.58952 0.139576 5.36026C0.298166 5.15393 4.14398 0.5 9.00081 0.5C13.8576 0.5 17.7034 5.15393 17.862 5.33734C18.0405 5.56659 18.0405 5.91048 17.862 6.13974C17.7034 6.34607 13.8576 11 9.00081 11C4.14398 11 0.298166 6.34607 0.139576 6.16266ZM9.00081 9.37227C10.7255 9.37227 12.133 7.74454 12.133 5.75C12.133 3.75546 10.7255 2.12773 9.00081 2.12773C7.27614 2.12773 5.86865 3.75546 5.86865 5.75C5.86865 7.74454 7.27614 9.37227 9.00081 9.37227ZM11.8554 2.26528C12.6484 3.13646 13.1638 4.37445 13.1638 5.75C13.1638 7.12555 12.6682 8.36354 11.8554 9.23472C14.1748 8.31769 16.0184 6.52948 16.7519 5.75C15.9986 4.9476 14.1748 3.18231 11.8554 2.26528ZM6.14618 9.23472C5.35323 8.36354 4.83781 7.12555 4.83781 5.75C4.83781 4.37445 5.33341 3.13646 6.14618 2.26528C3.8268 3.18231 1.98319 4.9476 1.24971 5.75C2.00301 6.5524 3.8268 8.31769 6.14618 9.23472Z" fill="white"/>
<path d="M9.00009 3.45746C9.31727 3.45746 9.59481 3.54916 9.85251 3.68672C9.59481 3.80135 9.39657 4.09938 9.39657 4.44327C9.39657 4.90178 9.71375 5.26859 10.1102 5.26859C10.4076 5.26859 10.6653 5.06226 10.7644 4.7413C10.8834 5.03934 10.9626 5.38322 10.9626 5.72711C10.9626 6.98803 10.0706 8.01969 8.98027 8.01969C7.88996 8.01969 6.99789 6.98803 6.99789 5.72711C7.01771 4.48912 7.90978 3.45746 9.00009 3.45746Z" fill="white"/>
</svg>

<svg fill="none" xmlns="http://www.w3.org/2000/svg" viewBox="0 0 18 11"><path d="M.1 6.2a.7.7 0 010-.8C.3 5.2 4.1.5 9 .5s8.7 4.7 8.9 4.8c.1.3.1.6 0 .8-.2.2-4 4.9-8.9 4.9S.3 6.3.1 6.2zM9 9.4c1.7 0 3.1-1.7 3.1-3.7S10.7 2.1 9 2.1c-1.7 0-3.1 1.7-3.1 3.6 0 2 1.4 3.7 3.1 3.7zm2.9-7.1c.7.8 1.3 2 1.3 3.5a5 5 0 01-1.3 3.4c2.3-.9 4.1-2.7 4.9-3.4-.8-.9-2.6-2.6-5-3.5zM6 9.3a5.2 5.2 0 01-1.3-3.6 5 5 0 011.3-3.4C3.8 3.2 2 4.9 1.2 5.8c.8.8 2.6 2.5 5 3.4z" fill="#fff"/><path d="M9 3.5c.3 0 .6 0 .9.2-.3.1-.5.4-.5.7 0 .5.3.9.7.9.3 0 .6-.2.7-.6l.2 1C11 7 10 8 9 8 7.9 8 7 7 7 5.7c0-1.2 1-2.2 2-2.2z" fill="#fff"/></svg>
